Simply black circles/scalable/mimes/audio-x-vorbis+ogg.svg

<?xml version="1.0" encoding="UTF-8" standalone="no"?>
<!-- Created with Inkscape (http://www.inkscape.org/) -->

<svg
   xmlns:dc="http://purl.org/dc/elements/1.1/"
   xmlns:cc="http://creativecommons.org/ns#"
   xmlns:rdf="http://www.w3.org/1999/02/22-rdf-syntax-ns#"
   xmlns:svg="http://www.w3.org/2000/svg"
   xmlns="http://www.w3.org/2000/svg"
   xmlns:xlink="http://www.w3.org/1999/xlink"
   xmlns:sodipodi="http://sodipodi.sourceforge.net/DTD/sodipodi-0.dtd"
   xmlns:inkscape="http://www.inkscape.org/namespaces/inkscape"
   version="1.1"
   width="48"
   height="48"
   id="svg21744"
   sodipodi:docname="application-ogg.svg"
   inkscape:version="0.92.3 (2405546, 2018-03-11)">
  <sodipodi:namedview
     pagecolor="#ffffff"
     bordercolor="#666666"
     borderopacity="1"
     objecttolerance="10"
     gridtolerance="10"
     guidetolerance="10"
     inkscape:pageopacity="0"
     inkscape:pageshadow="2"
     inkscape:window-width="1366"
     inkscape:window-height="690"
     id="namedview44"
     showgrid="false"
     inkscape:zoom="2.578125"
     inkscape:cx="1.3575758"
     inkscape:cy="24"
     inkscape:window-x="0"
     inkscape:window-y="28"
     inkscape:window-maximized="1"
     inkscape:current-layer="svg21744"
     inkscape:snap-global="false" />
  <defs
     id="defs21746">
    <linearGradient
       x1="525.4375"
       y1="836.1875"
       x2="516.65625"
       y2="828.5"
       id="linearGradient14113"
       xlink:href="#linearGradient14494-2-7"
       gradientUnits="userSpaceOnUse"
       gradientTransform="translate(-125.5,-1702.64)" />
    <linearGradient
       id="linearGradient14494-2-7">
      <stop
         id="stop14496-9-3"
         style="stop-color:#dc85e9;stop-opacity:1"
         offset="0" />
      <stop
         id="stop14498-9-7"
         style="stop-color:#f2cbf8;stop-opacity:1"
         offset="1" />
    </linearGradient>
    <linearGradient
       x1="520.58502"
       y1="735.05206"
       x2="516.15179"
       y2="720.86298"
       id="linearGradient14115"
       xlink:href="#linearGradient14494-5"
       gradientUnits="userSpaceOnUse" />
    <linearGradient
       id="linearGradient14494-5">
      <stop
         id="stop14496-5"
         style="stop-color:#dc85e9;stop-opacity:1"
         offset="0" />
      <stop
         id="stop14498-1"
         style="stop-color:#f2cbf8;stop-opacity:1"
         offset="1" />
    </linearGradient>
    <linearGradient
       x1="525.4375"
       y1="836.1875"
       x2="516.65625"
       y2="828.5"
       id="linearGradient54948"
       xlink:href="#linearGradient14494-2-7"
       gradientUnits="userSpaceOnUse"
       gradientTransform="translate(-462.50049,-802.00385)" />
    <linearGradient
       x1="520.58502"
       y1="735.05206"
       x2="516.15179"
       y2="720.86298"
       id="linearGradient14109"
       xlink:href="#linearGradient14494-5"
       gradientUnits="userSpaceOnUse"
       gradientTransform="matrix(0.512535,0,0,0.615385,-202.35949,-422.92385)" />
    <linearGradient
       x1="525.4375"
       y1="836.1875"
       x2="516.65625"
       y2="828.5"
       id="linearGradient54952"
       xlink:href="#linearGradient14494-2-7"
       gradientUnits="userSpaceOnUse"
       gradientTransform="translate(-462.50049,-797.50385)" />
    <linearGradient
       x1="209.0625"
       y1="-765.46082"
       x2="209.0625"
       y2="-781.62268"
       id="linearGradient44039"
       xlink:href="#linearGradient15606-1"
       gradientUnits="userSpaceOnUse"
       gradientTransform="matrix(1.5,0,0,1.5,-364.99949,1176.9562)" />
    <linearGradient
       id="linearGradient15606-1">
      <stop
         id="stop15608-0"
         style="stop-color:#ffffff;stop-opacity:0.58823502"
         offset="0" />
      <stop
         id="stop15610-5"
         style="stop-color:#ffffff;stop-opacity:0.86274499"
         offset="1" />
    </linearGradient>
    <linearGradient
       x1="294.3429"
       y1="256.58133"
       x2="294.41818"
       y2="243.13852"
       id="linearGradient44042"
       xlink:href="#linearGradient10286-3"
       gradientUnits="userSpaceOnUse"
       gradientTransform="matrix(2.99213,0,0,3.00466,-830.71149,-727.44385)" />
    <linearGradient
       id="linearGradient10286-3">
      <stop
         id="stop10288-8"
         style="stop-color:#b3b3b3;stop-opacity:1"
         offset="0" />
      <stop
         id="stop10290-7"
         style="stop-color:#e6e6e6;stop-opacity:1"
         offset="1" />
    </linearGradient>
    <linearGradient
       x1="110.96875"
       y1="976.29968"
       x2="110.96875"
       y2="992.375"
       id="linearGradient43236"
       xlink:href="#linearGradient4145-42"
       gradientUnits="userSpaceOnUse" />
    <linearGradient
       id="linearGradient4145-42">
      <stop
         id="stop4953"
         style="stop-color:#e694bb;stop-opacity:1"
         offset="0" />
      <stop
         id="stop4955"
         style="stop-color:#d3819a;stop-opacity:1"
         offset="0.26238" />
      <stop
         id="stop4957"
         style="stop-color:#b25a64;stop-opacity:1"
         offset="0.704952" />
      <stop
         id="stop4959"
         style="stop-color:#98313d;stop-opacity:1"
         offset="1" />
    </linearGradient>
    <linearGradient
       x1="110.96875"
       y1="976.29968"
       x2="110.99982"
       y2="991.87488"
       id="linearGradient14097-7"
       xlink:href="#linearGradient4145-42"
       gradientUnits="userSpaceOnUse"
       gradientTransform="matrix(1,0,0,1.00011,0,-0.10551)" />
    <linearGradient
       x1="110.96875"
       y1="976.29968"
       x2="110.96875"
       y2="992.375"
       id="linearGradient21742"
       xlink:href="#linearGradient4145-42"
       gradientUnits="userSpaceOnUse"
       gradientTransform="matrix(1.00399,0,0,1.00959,-1.1658,-9.36636)" />
    <clipPath
       clipPathUnits="userSpaceOnUse"
       id="clipPath867">
      <g
         inkscape:label="Clip"
         id="use869">
        <path
           d="m 47.000614,3.0210706 v 0.75 40.5000404 0.72723 h 0.75 32.499399 0.75 v -0.72723 -25.50003 -0.3282 l -0.2344,-0.2343 -14.9059,-15.0000104 -0.1875,-0.1875 h -0.3282 -17.593399 z"
           id="path875"
           style="color:#000000;font-style:normal;font-variant:normal;font-weight:normal;font-stretch:normal;font-size:medium;line-height:normal;font-family:'Andale Mono';text-indent:0pt;text-align:start;text-decoration:none;text-decoration-line:none;letter-spacing:normal;word-spacing:normal;text-transform:none;direction:ltr;text-anchor:start;display:inline;overflow:visible;visibility:visible;fill:#000000;fill-opacity:1;fill-rule:nonzero;stroke:none;stroke-width:1;marker:none"
           inkscape:connector-curvature="0" />
      </g>
    </clipPath>
  </defs>
  <metadata
     id="metadata21749">
    <rdf:RDF>
      <cc:Work
         rdf:about="">
        <dc:format>image/svg+xml</dc:format>
        <dc:type
           rdf:resource="http://purl.org/dc/dcmitype/StillImage" />
        <dc:title></dc:title>
      </cc:Work>
    </rdf:RDF>
  </metadata>
  <path
     style="color:#000000;font-style:normal;font-variant:normal;font-weight:normal;font-stretch:normal;font-size:medium;line-height:normal;font-family:'Andale Mono';text-indent:0pt;text-align:start;text-decoration:none;text-decoration-line:none;letter-spacing:normal;word-spacing:normal;text-transform:none;direction:ltr;text-anchor:start;display:inline;overflow:visible;visibility:visible;fill:#1a1a1a;fill-opacity:1;stroke:none;stroke-width:5.99873972;marker:none"
     d="M 29.705078 -0.083984375 C 27.658234 -0.075805254 25.583576 0.00449542 25.1875 0.013671875 L 7 0.013671875 C 6.813106 -0.004321175 6.624454 -0.004321175 6.4375 0.013671875 C 5.062346 0.27607036 3.975341 1.6123101 4 3.0117188 L 4 45 C 4.00015 46.570313 5.429312 47.99985 7 48 L 41 48 C 42.570687 47.99985 43.99985 46.570313 44 45 L 44 18.818359 C 44.018 18.026395 44.215294 8.8914456 43.664062 8.3222656 L 34.054688 0.24804688 C 33.770027 -0.027426575 31.751922 -0.092163496 29.705078 -0.083984375 z M 31.195312 3.0097656 L 31.328125 10.513672 C 31.340155 11.195372 31.966379 11.80479 32.644531 11.792969 L 40.416016 11.65625 C 40.548988 11.674363 40.684161 11.672765 40.816406 11.650391 L 40.898438 14.679688 L 41 18.771484 L 41 44.271484 L 41 44.998047 L 40.25 44.998047 L 7.75 44.998047 L 7 44.998047 L 7 44.271484 L 7 3.7714844 L 7 3.0214844 L 7.75 3.0214844 L 25.34375 3.0214844 L 25.671875 3.0214844 L 31.195312 3.0097656 z M 28.417969 5.8554688 C 24.291069 6.5136588 19.545489 7.1917188 15.429688 7.8867188 C 14.339887 8.4129687 14.585329 9.7686537 14.537109 10.751953 L 14.537109 23.912109 C 11.73631 23.270909 8.6625156 25.364091 8.5410156 28.337891 C 8.3427256 30.18929 10.000887 31.80045 11.804688 31.84375 C 15.034387 31.92134 17.490391 29.80124 17.525391 27.119141 C 17.490121 22.614841 17.535291 18.108117 17.525391 13.603516 C 18.025392 13.566866 25.844391 12.136316 26.525391 12.041016 L 26.525391 22.164062 C 23.941991 21.403002 21.358856 22.994096 20.722656 25.660156 C 20.251916 27.204556 20.962021 29.029409 22.494141 29.662109 C 25.485041 31.022309 29.692391 28.266703 29.525391 25.033203 C 29.479071 19.026903 29.563361 13.018718 29.525391 7.0117188 C 29.446841 6.4472388 29.059529 5.8146688 28.417969 5.8554688 z M 13.474609 34.59375 C 11.70611 34.53581 10.186768 36.345425 10.605469 38.078125 C 10.912379 39.776125 12.894688 40.85235 14.492188 40.21875 C 15.968587 39.73604 16.844266 37.968019 16.259766 36.511719 C 15.864836 35.357619 14.686709 34.57015 13.474609 34.59375 z M 19.445312 34.599609 C 18.447279 34.696436 17.484391 35.336747 17.158203 36.314453 C 16.547203 37.828653 17.277506 39.910741 18.966797 40.306641 C 19.868207 40.555441 20.920787 40.309873 21.492188 39.533203 C 21.559648 40.473463 20.853625 41.465381 19.828125 41.300781 C 19.113695 41.440831 18.778934 40.584471 18.115234 40.712891 L 17.041016 40.712891 C 17.708236 42.478591 20.141419 42.959034 21.636719 41.990234 C 22.737419 41.296634 22.793719 39.895416 22.761719 38.728516 L 22.761719 34.722656 L 21.492188 34.722656 C 21.488287 35.145696 21.588148 35.712511 21.148438 35.056641 C 20.6558 34.677891 20.044133 34.541513 19.445312 34.599609 z M 26.046875 34.599609 C 25.048842 34.696436 24.085953 35.336747 23.759766 36.314453 C 23.148766 37.828653 23.879069 39.910741 25.568359 40.306641 C 26.469769 40.555441 27.52235 40.309873 28.09375 39.533203 C 28.16121 40.473463 27.455187 41.465381 26.429688 41.300781 C 25.715257 41.440831 25.380497 40.584471 24.716797 40.712891 L 23.642578 40.712891 C 24.309788 42.478591 26.742981 42.959034 28.238281 41.990234 C 29.338981 41.296634 29.395281 39.895416 29.363281 38.728516 L 29.363281 34.722656 L 28.09375 34.722656 C 28.08985 35.145696 28.18971 35.712511 27.75 35.056641 C 27.257362 34.677891 26.645695 34.541513 26.046875 34.599609 z M 19.832031 35.8125 L 19.832031 35.814453 C 20.976631 35.741593 21.696288 37.023609 21.367188 38.037109 C 21.113437 39.381309 18.995391 39.587383 18.462891 38.345703 C 17.99266 37.384603 18.463288 35.888166 19.662109 35.822266 L 19.832031 35.8125 z M 26.433594 35.8125 L 26.433594 35.814453 C 27.578194 35.741593 28.29785 37.023609 27.96875 38.037109 C 27.715 39.381309 25.596953 39.587383 25.064453 38.345703 C 24.594223 37.384603 25.064851 35.888166 26.263672 35.822266 L 26.433594 35.8125 z M 13.486328 35.814453 C 14.765928 35.776233 15.549466 37.418294 14.822266 38.433594 C 14.267926 39.407664 12.708503 39.406408 12.158203 38.429688 C 11.449973 37.390388 12.187629 35.801953 13.486328 35.814453 z "
     id="path14075" />
</svg>

<svg xmlns="http://www.w3.org/2000/svg" width="48" height="48"><defs><linearGradient id="a"><stop offset="0" stop-color="#dc85e9"/><stop offset="1" stop-color="#f2cbf8"/></linearGradient><linearGradient id="b"><stop offset="0" stop-color="#dc85e9"/><stop offset="1" stop-color="#f2cbf8"/></linearGradient><linearGradient id="c"><stop offset="0" stop-color="#fff" stop-opacity=".588"/><stop offset="1" stop-color="#fff" stop-opacity=".863"/></linearGradient><linearGradient id="d"><stop offset="0" stop-color="#b3b3b3"/><stop offset="1" stop-color="#e6e6e6"/></linearGradient><linearGradient id="e"><stop offset="0" stop-color="#e694bb"/><stop offset=".262" stop-color="#d3819a"/><stop offset=".705" stop-color="#b25a64"/><stop offset="1" stop-color="#98313d"/></linearGradient></defs><path style="line-height:normal;text-indent:0;text-align:start;text-decoration-line:none;text-transform:none;marker:none" d="M29.705-.084c-2.047.008-4.121.088-4.517.098H7a2.938 2.938 0 0 0-.563 0C5.063.276 3.975 1.612 4 3.012V45c0 1.57 1.43 3 3 3h34c1.57 0 3-1.43 3-3V18.818c.018-.792.215-9.927-.336-10.496L34.054.248c-.284-.275-2.302-.34-4.349-.332zm1.49 3.094l.133 7.504c.012.681.638 1.29 1.317 1.279l7.771-.137c.133.018.268.017.4-.006l.082 3.03L41 18.77v26.227H7V3.021h18.672l5.523-.011zm-2.777 2.845c-4.127.659-8.873 1.337-12.988 2.032-1.09.526-.845 1.882-.893 2.865v13.16c-2.8-.641-5.874 1.452-5.996 4.426-.198 1.851 1.46 3.462 3.264 3.506 3.23.077 5.685-2.043 5.72-4.725-.035-4.504.01-9.01 0-13.515.5-.037 8.32-1.468 9-1.563v10.123c-2.583-.761-5.166.83-5.802 3.496-.471 1.545.239 3.37 1.771 4.002 2.991 1.36 7.198-1.395 7.031-4.629-.046-6.006.038-12.014 0-18.021-.078-.565-.465-1.197-1.107-1.157zM13.475 34.594c-1.769-.058-3.288 1.751-2.87 3.484.307 1.698 2.29 2.774 3.887 2.14 1.477-.482 2.352-2.25 1.768-3.706-.395-1.154-1.573-1.942-2.785-1.918zm5.97.006c-.998.096-1.96.737-2.287 1.714-.61 1.515.12 3.597 1.809 3.993.901.248 1.954.003 2.525-.774.068.94-.638 1.932-1.664 1.768-.714.14-1.05-.717-1.713-.588h-1.074c.667 1.766 3.1 2.246 4.596 1.277 1.1-.693 1.157-2.095 1.125-3.261v-4.006h-1.27c-.004.423.096.99-.344.334-.492-.38-1.104-.515-1.703-.457zm6.602 0c-.998.096-1.961.737-2.287 1.714-.611 1.515.12 3.597 1.808 3.993.902.248 1.954.003 2.526-.774.067.94-.639 1.932-1.664 1.768-.715.14-1.05-.717-1.713-.588h-1.074c.667 1.766 3.1 2.246 4.595 1.277 1.101-.693 1.157-2.095 1.125-3.261v-4.006h-1.27c-.003.423.097.99-.343.334-.493-.38-1.104-.515-1.703-.457zm-6.215 1.212v.002c1.145-.072 1.864 1.21 1.535 2.223-.254 1.344-2.372 1.55-2.904.309-.47-.961 0-2.458 1.2-2.524l.169-.01zm6.602 0v.002c1.144-.072 1.864 1.21 1.535 2.223-.254 1.344-2.372 1.55-2.905.309-.47-.961 0-2.458 1.2-2.524l.17-.01zm-12.948.002c1.28-.038 2.063 1.604 1.336 2.62-.554.974-2.113.972-2.664-.004-.708-1.04.03-2.628 1.328-2.616z" color="#000" font-weight="400" font-family="Andale Mono" overflow="visible" fill="#1a1a1a"/></svg>
